Cloud/dashboard/static/tracks/sepang.svg

<?xml version="1.0" encoding="UTF-8"?>
<!-- Uploaded to: SVG Find, www.svgfind.com, Generator: SVG Find Mixer Tools -->
<svg fill="#000000" width="800px" height="800px" version="1.1" viewBox="144 144 512 512" xmlns="http://www.w3.org/2000/svg">
 <path d="m607.13 293.9c6-5.918 8.375-14.648 6.1914-22.789l-6.5898-24.574c-2.5781-9.625-10.629-16.699-20.508-18.023l-110.13-14.727c-13.441-1.8203-27.082 3.1641-36.238 13.125-7.9883 8.6914-11.844 19.969-10.852 31.762 0.60547 7.2109 0.625 10.434 0.53125 11.871-0.42188 6.6328-15.027 34.738-40.66 34.742h-0.003906c-5.957 0-12.238-1.5078-18.672-4.4766-4.0312-1.8594-8.0039-4.4258-11.809-7.6289l-62.637-52.73c-3.0469-2.5664-6.9062-3.9805-10.867-3.9805-6.8828 0-13.027 4.1016-15.656 10.449l-11.199 27.051c-1.3359 3.2188-2.9062 6.3828-4.6836 9.3984-9.8203 16.688-42.273 71.777-47.551 80.133-0.57812 0.91406-1.2617 1.9492-2.0195 3.0977-7.7266 11.719-23.805 36.094-15.641 63.379 9.0078 30.133 23.602 48.438 43.367 54.406 4.9844 1.5039 9.4414 2.5117 13.371 3.4062 11.688 2.6484 14.242 3.6484 14.734 8.2148 0.28906 2.6836-0.47656 3.9688-1.0781 4.7031-0.94141 1.1484-3.5234 3.1641-10.254 3.7734-4.8164 0.4375-10.059 3.5156-13.352 7.8477-2.4414 3.2148-5.0586 8.6836-3.6406 16.473 1.9883 10.918 11.621 15.887 19.734 15.887 4.9453 0 9.4219-1.7266 12.551-4.8086l267.21-256.33c3.7578-3.6094 10.176-3.5156 13.836 0.19531 3.5742 3.6289 3.7734 9.4883 0.44922 13.348l-217.48 252.54c-4.7266 5.4883-6.3086 12.91-4.2305 19.859 2.0625 6.9023 7.418 12.207 14.324 14.184 6.3633 1.8281 12.48 2.8047 18.191 2.9062l0.61328 0.003906c19.137 0 52.777-15.586 67.02-58.516 3.7188-11.207 13.984-18.738 25.551-18.738l102.27 2.5273c4.7578 0 9.2266-1.8594 12.582-5.2344 3.3438-3.3594 5.168-7.8125 5.1445-12.539-0.12891-25.137-8.3125-46.656-23.66-62.238-10.504-10.656-18.91-15-29.016-15-2.7773 0-5.4141 0.29688-8.207 0.60938-1.1484 0.12891-2.332 0.26172-3.5547 0.375-4.1992 0.38672-10.859 1.3828-19.797 2.9609-1.7109 0.29688-2.5625-1.1094-2.7305-1.5234-0.28125-0.68359-0.41016-1.6953 0.56641-2.6562zm-134.34 129.16c2.2266 5.4258 7.6484 8.668 13.75 7.5938 8.668-1.5312 15.055-2.4883 18.98-2.8516 1.2891-0.12109 2.5352-0.25781 3.75-0.39453 2.5078-0.28125 4.875-0.54688 7.0898-0.54688 4.8555 0 10.949 0.92969 21.875 12.012 13.477 13.676 20.664 32.785 20.777 55.254 0.007813 2.0352-0.78125 3.9609-2.2266 5.4141-1.4609 1.4688-3.4023 2.2773-5.668 2.2773h-0.007813l-101.15-2.5117-0.92188-0.011719c-15.895 0-29.984 10.289-35.066 25.605-12.48 37.625-41.895 51.648-57.504 51.648l-0.4375-0.003906c-4.8359-0.082031-10.082-0.92969-15.605-2.5156-3.6602-1.0469-6.3867-3.7539-7.4844-7.418-1.0898-3.6523-0.25781-7.5625 2.2266-10.445l217.48-252.55c6.6992-7.7812 6.3008-19.609-0.90625-26.926-3.7656-3.8203-8.793-5.9219-14.16-5.9219-5.1523 0-10.039 1.9648-13.758 5.5312l-165.77 159.02-6.9961-7.3047-30.445 29.152-4.9023 0.070313-4.1797 15.566 39.371-37.703 3.5312 3.6875-97.867 93.887c-3.5664 3.5156-13.945 2.4922-15.43-5.6875-0.61328-3.3711-0.023437-6.2656 1.7578-8.6094 2-2.6289 4.9102-3.8047 6.2773-3.9297 7.9102-0.71875 13.664-3.2109 17.102-7.4062 2.6562-3.2422 3.7969-7.4375 3.2891-12.129-1.3047-12.125-11.121-14.348-22.484-16.922-3.7734-0.85547-8.043-1.8203-12.691-3.2266-16.34-4.9336-28.676-20.973-36.66-47.68-6.8203-22.801 6.9883-43.738 14.406-54.984 0.80078-1.2109 1.5195-2.3047 2.125-3.2617 5.2109-8.2461 35.105-58.973 47.719-80.402 2.0078-3.418 3.793-6.9961 5.3047-10.645l11.199-27.047c1.0703-2.5898 3.582-4.2617 6.3945-4.2617 1.1328 0 2.8164 0.28125 4.4102 1.625l62.629 52.734c4.4922 3.7773 9.2227 6.8281 14.066 9.0625 7.7578 3.582 15.453 5.3984 22.875 5.3984h0.003907c31.398-0.003906 49.941-32.793 50.668-44.125 0.16797-2.6172-0.007812-6.9844-0.54688-13.355-0.75391-8.9609 2.1719-17.531 8.2422-24.133 6.957-7.5664 17.086-11.371 27.531-9.9727l110.13 14.727c5.8555 0.78516 10.625 4.9766 12.156 10.68l6.5898 24.574c1.25 4.6641-0.10938 9.6641-3.5508 13.051l-124.49 122.7c-3.6836 3.6289-4.7578 8.8398-2.8047 13.602z"/>
</svg>

<?xml version="1.0" encoding="utf-8"?>
<svg fill="#000000" width="800px" height="800px" version="1.1" viewBox="144 144 512 512" xmlns="http://www.w3.org/2000/svg">
  <path d="M 607.13 293.9 C 613.13 287.982 615.505 279.252 613.321 271.111 L 606.732 246.537 C 604.154 236.912 596.103 229.838 586.224 228.514 L 476.094 213.787 C 462.653 211.967 449.012 216.951 439.856 226.912 C 431.867 235.603 428.012 246.881 429.004 258.674 C 429.609 265.885 429.629 269.108 429.535 270.545 C 429.113 277.178 414.508 305.283 388.875 305.287 L 388.871 305.287 C 382.914 305.287 376.633 303.779 370.199 300.81 C 366.168 298.951 362.195 296.385 358.39 293.181 L 295.753 240.451 C 292.706 237.885 288.847 236.471 284.886 236.471 C 278.003 236.471 271.859 240.573 269.23 246.92 L 258.031 273.971 C 256.695 277.19 255.125 280.354 253.347 283.369 C 243.527 300.057 211.074 355.146 205.796 363.502 C 205.218 364.416 204.535 365.452 203.777 366.6 C 196.05 378.319 179.972 402.694 188.136 429.979 C 197.144 460.112 211.738 478.417 231.503 484.385 C 236.487 485.889 240.944 486.897 244.874 487.791 C 256.562 490.44 259.116 491.44 259.608 496.006 C 259.897 498.69 259.131 499.975 258.53 500.709 C 257.588 501.858 255.006 503.873 248.276 504.483 C 243.459 504.92 238.217 507.998 234.924 512.33 C 232.482 515.545 229.865 521.014 231.283 528.803 C 233.271 539.721 242.904 544.69 251.017 544.69 C 255.962 544.69 260.439 542.964 263.568 539.882 L 530.778 283.552 C 534.536 279.942 540.954 280.036 544.614 283.747 C 548.188 287.376 548.388 293.235 545.063 297.095 L 327.583 549.635 C 322.857 555.123 321.275 562.545 323.353 569.494 C 325.415 576.396 330.771 581.701 337.677 583.678 C 344.04 585.506 350.157 586.483 355.868 586.584 L 356.481 586.588 C 375.618 586.588 409.258 571.002 423.501 528.072 C 427.22 516.865 437.485 509.334 449.052 509.334 L 551.322 511.862 C 556.08 511.862 560.549 510.002 563.904 506.627 C 567.248 503.268 569.072 498.815 569.049 494.088 C 568.92 468.951 560.736 447.432 545.389 431.85 C 534.885 421.194 526.479 416.85 516.373 416.85 C 513.595 416.85 510.959 417.147 508.166 417.459 C 507.017 417.588 505.834 417.721 504.611 417.834 C 500.412 418.221 493.752 419.217 484.814 420.795 C 483.103 421.092 482.251 419.686 482.083 419.272 C 481.802 418.588 481.673 417.577 482.65 416.616 L 607.13 293.9 Z M 472.79 423.06 C 475.017 428.486 480.438 431.728 486.54 430.654 C 495.208 429.123 501.595 428.165 505.52 427.802 C 506.809 427.681 508.055 427.544 509.27 427.408 C 511.778 427.126 514.145 426.861 516.36 426.861 C 521.215 426.861 527.309 427.79 538.235 438.873 C 551.712 452.549 558.899 471.658 559.012 494.127 C 559.02 496.162 558.231 498.088 556.785 499.541 C 555.324 501.01 553.383 501.818 551.117 501.818 L 551.109 501.818 L 449.959 499.307 L 449.037 499.295 C 433.142 499.295 419.053 509.584 413.971 524.9 C 401.491 562.525 372.076 576.548 356.467 576.548 L 356.03 576.544 C 351.194 576.462 345.948 575.614 340.425 574.028 C 336.765 572.981 334.038 570.274 332.941 566.61 C 331.851 562.958 332.683 559.048 335.167 556.165 L 552.647 303.615 C 559.346 295.834 558.948 284.006 551.741 276.689 C 547.975 272.869 542.948 270.767 537.581 270.767 C 532.429 270.767 527.542 272.732 523.823 276.299 L 256.565 532.674 C 252.999 536.189 242.62 535.166 241.135 526.986 C 240.522 523.615 241.112 520.721 242.893 518.377 C 244.893 515.748 247.803 514.572 249.17 514.447 C 257.08 513.728 262.834 511.236 266.272 507.041 C 268.928 503.799 270.069 499.603 269.561 494.912 C 268.256 482.787 258.44 480.564 247.077 477.99 C 243.304 477.134 239.034 476.17 234.386 474.763 C 218.046 469.83 205.71 453.79 197.726 427.083 C 190.906 404.282 204.714 383.345 212.132 372.099 C 212.933 370.888 213.652 369.795 214.257 368.838 C 219.468 360.592 249.362 309.865 261.976 288.436 C 263.984 285.018 265.769 281.44 267.281 277.791 L 278.48 250.744 C 279.55 248.154 282.062 246.482 284.874 246.482 C 286.007 246.482 287.691 246.763 289.285 248.107 L 351.914 300.841 C 356.406 304.618 361.136 307.669 365.98 309.903 C 373.737 313.485 381.433 315.302 388.855 315.302 L 388.858 315.302 C 420.256 315.298 438.799 282.509 439.526 271.177 C 439.694 268.56 439.519 264.192 438.98 257.822 C 438.226 248.861 441.151 240.291 447.222 233.689 C 454.179 226.122 464.308 222.318 474.753 223.716 L 584.883 238.443 C 590.738 239.228 595.508 243.42 597.039 249.123 L 603.629 273.697 C 604.879 278.361 603.519 283.361 600.078 286.748 L 475.588 409.448 C 471.904 413.077 470.83 418.288 472.783 423.05 L 472.79 423.06 Z"/>
</svg>
